src/pos-icons/lock-open-variant.svg

<svg height="24" viewBox="0 0 24 24" width="24" xmlns="http://www.w3.org/2000/svg"><path d="m18 1c-2.76 0-5 2.24-5 5v2h-9c-1.1 0-2 .89-2 2v10c0 1.11.9 2 2 2h12c1.11 0 2-.89 2-2v-10c0-1.1-.89-2-2-2h-1v-2c0-1.66 1.34-3 3-3s3 1.34 3 3v2h2v-2c0-2.76-2.24-5-5-5m-8 12c1.1 0 2 .89 2 2s-.89 2-2 2c-1.1 0-2-.89-2-2 0-1.1.9-2 2-2z"/></svg>

<?xml version="1.0" encoding="UTF-8"?><!DOCTYPE svg PUBLIC "-//W3C//DTD SVG 1.1//EN" "http://www.w3.org/Graphics/SVG/1.1/DTD/svg11.dtd"><svg xmlns="http://www.w3.org/2000/svg" xmlns:xlink="http://www.w3.org/1999/xlink" version="1.1" id="mdi-lock-open-variant" width="24" height="24" viewBox="0 0 24 24"><path d="M18 1C15.24 1 13 3.24 13 6V8H4C2.9 8 2 8.89 2 10V20C2 21.11 2.9 22 4 22H16C17.11 22 18 21.11 18 20V10C18 8.9 17.11 8 16 8H15V6C15 4.34 16.34 3 18 3C19.66 3 21 4.34 21 6V8H23V6C23 3.24 20.76 1 18 1M10 13C11.1 13 12 13.89 12 15C12 16.11 11.11 17 10 17C8.9 17 8 16.11 8 15C8 13.9 8.9 13 10 13Z" /></svg>
